packages/ui-icons/src/Basic/16/Pre5g_16.svg

<svg viewBox="0 0 20 20" xmlns="http://www.w3.org/2000/svg">
<g clip-path="url(#clip0_191_198)">
<path d="M15.7 6C16.55 6 17.4 6.35 18 6.95C18.6 7.55 19 8.45 18.95 9.25V10.65C18.95 11.5 18.6 12.35 18 12.95C17.4 13.55 16.55 13.95 15.7 13.95L4.3 14C3.45 14 2.6 13.65 2 13C1.35 12.4 0.999997 11.55 0.999997 10.7V9.3C0.999997 8.45 1.35 7.6 2 7C2.6 6.35 3.45 6 4.3 6H15.7ZM15.7 5H4.3C3.15 5 2.05 5.45 1.25 6.25C0.45 7.05 0 8.15 0 9.3V10.7C0 11.85 0.45 12.95 1.25 13.75C2.05 14.55 3.15 15 4.3 15H15.7C16.85 15 17.95 14.55 18.75 13.75C19.55 12.95 20 11.85 20 10.7V9.3C20 8.15 19.55 7.05 18.75 6.25C17.95 5.45 16.85 5 15.7 5Z" />
<path d="M15.588 11.2255C16.5206 11.2255 17.001 10.6268 17.001 9.83126V9.44666H15.6445V10.0717H16.1855C16.1693 10.3208 16.0159 10.5437 15.6122 10.5437C15.1117 10.5437 14.9381 10.1504 14.9381 9.64334V9.60838C14.9381 9.04457 15.1843 8.70366 15.5921 8.70366C15.8989 8.70366 16.0725 8.85663 16.1128 9.14946H16.9323C16.8758 8.33654 16.2703 8 15.588 8C14.7201 8 14.0742 8.64248 14.0742 9.59526V9.63023C14.0742 10.5656 14.607 11.2255 15.588 11.2255Z" />
<path d="M12.6403 11.2262C13.371 11.2262 13.811 10.7892 13.811 10.1248C13.811 9.44741 13.4638 9.0628 12.935 9.0628C12.5757 9.0628 12.3698 9.22451 12.2608 9.39497L12.277 8.70441H13.6253V8.04883H11.6795L11.619 9.88881H12.1115C12.2083 9.76651 12.3537 9.66594 12.5878 9.66594C12.8381 9.66594 12.9794 9.83201 12.9794 10.1117C12.9794 10.3609 12.8704 10.5532 12.6322 10.5532C12.3658 10.5532 12.2851 10.4089 12.2568 10.1904H11.5059C11.5261 10.7761 11.8733 11.2262 12.6403 11.2262Z" />
<path fill-rule="evenodd" clip-rule="evenodd" d="M3.75397 12.0036H3V8.73259H3.75397V9.09262C3.88033 8.86183 4.10778 8.66797 4.44054 8.66797C4.95441 8.66797 5.37141 9.09262 5.37141 9.91881V9.95581C5.37141 10.7866 4.95441 11.202 4.43632 11.202C4.10357 11.202 3.86348 11.0313 3.75397 10.7912V12.0036ZM3.73291 9.95121C3.73291 10.362 3.89718 10.5697 4.17096 10.5697C4.45317 10.5697 4.60481 10.3527 4.60481 9.95581V9.91881C4.60481 9.4942 4.43632 9.2911 4.17096 9.2911C3.89718 9.2911 3.73291 9.50805 3.73291 9.91421V9.95121Z" />
<path d="M6.46099 11.1457H5.70703V8.73163H6.46099V9.21167C6.59999 8.85164 6.83165 8.6947 7.17283 8.69932V9.47016C6.71372 9.45631 6.46099 9.61325 6.46099 10.0009V11.1457Z" />
<path fill-rule="evenodd" clip-rule="evenodd" d="M8.56538 11.202C9.23089 11.202 9.61418 10.8928 9.68158 10.3481H8.97395C8.94446 10.5097 8.83916 10.6343 8.59065 10.6343C8.32108 10.6343 8.15259 10.4497 8.13153 10.1312H9.68158V9.91421C9.68158 9.04646 9.16349 8.66797 8.56116 8.66797C7.89565 8.66797 7.36914 9.15724 7.36914 9.93271V9.96961C7.36914 10.7589 7.87459 11.202 8.56538 11.202ZM8.13996 9.66498C8.17786 9.37419 8.33371 9.21263 8.56116 9.21263C8.80546 9.21263 8.93604 9.37419 8.94868 9.66498H8.13996Z" />
<path d="M10.5953 10.4585C10.8162 10.4585 10.9953 10.2736 10.9953 10.0456C10.9953 9.81759 10.8162 9.63281 10.5953 9.63281C10.3743 9.63281 10.1953 9.81759 10.1953 10.0456C10.1953 10.2736 10.3743 10.4585 10.5953 10.4585Z" />
</g>
<defs>
<clipPath id="clip0_191_198">
<rect width="20" height="20" fill="white"/>
</clipPath>
</defs>
</svg>

<svg viewBox="0 0 20 20" xmlns="http://www.w3.org/2000/svg"><g clip-path="url(#a)"><path d="M15.7 6c.85 0 1.7.35 2.3.95.6.6 1 1.5.95 2.3v1.4c0 .85-.35 1.7-.95 2.3-.6.6-1.45 1-2.3 1L4.3 14c-.85 0-1.7-.35-2.3-1-.65-.6-1-1.45-1-2.3V9.3c0-.85.35-1.7 1-2.3.6-.65 1.45-1 2.3-1h11.4Zm0-1H4.3c-1.15 0-2.25.45-3.05 1.25C.45 7.05 0 8.15 0 9.3v1.4c0 1.15.45 2.25 1.25 3.05.8.8 1.9 1.25 3.05 1.25h11.4c1.15 0 2.25-.45 3.05-1.25.8-.8 1.25-1.9 1.25-3.05V9.3c0-1.15-.45-2.25-1.25-3.05-.8-.8-1.9-1.25-3.05-1.25Z"/><path d="M15.588 11.226c.933 0 1.413-.6 1.413-1.395v-.384h-1.357v.625h.542c-.017.249-.17.472-.574.472-.5 0-.674-.394-.674-.9v-.036c0-.563.246-.904.654-.904.307 0 .48.153.52.445h.82C16.876 8.337 16.27 8 15.588 8c-.868 0-1.514.642-1.514 1.595v.035c0 .936.533 1.595 1.514 1.595ZM12.64 11.226c.731 0 1.171-.437 1.171-1.101 0-.678-.347-1.062-.876-1.062-.36 0-.565.162-.674.332l.016-.69h1.348v-.656H11.68l-.061 1.84h.492a.572.572 0 0 1 .477-.223c.25 0 .391.166.391.446 0 .249-.109.441-.347.441-.266 0-.347-.144-.375-.363h-.751c.02.586.367 1.036 1.134 1.036Z"/><path fill-rule="evenodd" clip-rule="evenodd" d="M3.754 12.004H3V8.733h.754v.36c.126-.231.354-.425.687-.425.513 0 .93.425.93 1.25v.038c0 .83-.417 1.246-.935 1.246-.332 0-.573-.17-.682-.41v1.212ZM3.733 9.95c0 .411.164.619.438.619.282 0 .434-.217.434-.614v-.037c0-.425-.169-.628-.434-.628-.274 0-.438.217-.438.623v.037Z"/><path d="M6.461 11.146h-.754V8.732h.754v.48c.139-.36.37-.517.712-.513v.771c-.46-.014-.712.143-.712.53v1.146Z"/><path fill-rule="evenodd" clip-rule="evenodd" d="M8.565 11.202c.666 0 1.05-.31 1.117-.854h-.708c-.03.162-.135.286-.383.286-.27 0-.438-.184-.46-.503h1.55v-.217c0-.868-.518-1.246-1.12-1.246-.665 0-1.192.49-1.192 1.265v.037c0 .789.506 1.232 1.196 1.232ZM8.14 9.665c.038-.29.194-.452.421-.452.244 0 .375.161.388.452H8.14Z"/><path d="M10.595 10.459c.221 0 .4-.185.4-.413a.407.407 0 0 0-.4-.413c-.22 0-.4.185-.4.413 0 .228.18.413.4.413Z"/></g><defs><clipPath id="a"><path fill="#fff" d="M0 0h20v20H0z"/></clipPath></defs></svg>
